images/icons/instagram.svg

<svg width="24" height="24" viewBox="0 0 24 24" fill="none" xmlns="http://www.w3.org/2000/svg">
<path d="M21.5382 8.06687C21.5264 7.26111 21.3772 6.46173 21.0914 5.70812C20.5914 4.42124 19.5732 3.40365 18.2841 2.9055C17.5389 2.62556 16.7509 2.47548 15.9534 2.45845C14.9278 2.41268 14.6026 2.3999 11.9989 2.3999C9.39529 2.3999 9.06157 2.3999 8.04335 2.45845C7.24691 2.47548 6.45899 2.62556 5.71372 2.9055C4.42469 3.40365 3.40541 4.42124 2.90644 5.70812C2.62603 6.45215 2.47463 7.23875 2.4597 8.03388C2.41385 9.05891 2.39999 9.38356 2.39999 11.9829C2.39999 14.5822 2.39999 14.9143 2.4597 15.9319C2.47569 16.7281 2.62603 17.5136 2.90644 18.2598C3.40648 19.5456 4.42469 20.5632 5.71479 21.0613C6.45686 21.3508 7.24477 21.5148 8.04442 21.5403C9.07116 21.5861 9.39635 21.5999 12 21.5999C14.6036 21.5999 14.9374 21.5999 15.9556 21.5403C16.752 21.5243 17.5399 21.3742 18.2863 21.0943C19.5753 20.5951 20.5935 19.5775 21.0936 18.2917C21.374 17.5466 21.5243 16.7611 21.5403 15.9638C21.5861 14.9398 21.6 14.6152 21.6 12.0148C21.5979 9.41549 21.5979 9.08552 21.5382 8.06687ZM11.9925 16.8984C9.26948 16.8984 7.06352 14.6961 7.06352 11.9776C7.06352 9.25902 9.26948 7.05674 11.9925 7.05674C14.7135 7.05674 16.9215 9.25902 16.9215 11.9776C16.9215 14.6961 14.7135 16.8984 11.9925 16.8984ZM17.1177 8.02217C16.4812 8.02217 15.9684 7.50912 15.9684 6.87472C15.9684 6.24033 16.4812 5.72728 17.1177 5.72728C17.7521 5.72728 18.266 6.24033 18.266 6.87472C18.266 7.50912 17.7521 8.02217 17.1177 8.02217Z" fill="#111111"/>
<path d="M11.9941 14.9821C13.6526 14.9821 14.9971 13.6376 14.9971 11.9791C14.9971 10.3206 13.6526 8.97607 11.9941 8.97607C10.3355 8.97607 8.99106 10.3206 8.99106 11.9791C8.99106 13.6376 10.3355 14.9821 11.9941 14.9821Z" fill="#111111"/>
</svg>

<svg xmlns="http://www.w3.org/2000/svg" width="24" height="24" fill="none"><path fill="#111" d="M21.538 8.067a6.94 6.94 0 0 0-.447-2.359 4.91 4.91 0 0 0-2.807-2.803 7.054 7.054 0 0 0-2.33-.447c-1.026-.045-1.351-.058-3.955-.058s-2.937 0-3.956.058a7.053 7.053 0 0 0-2.33.447 4.908 4.908 0 0 0-2.807 2.803 6.966 6.966 0 0 0-.446 2.326c-.046 1.025-.06 1.35-.06 3.949 0 2.6 0 2.931.06 3.949a7.01 7.01 0 0 0 .446 2.328 4.91 4.91 0 0 0 2.809 2.801 7.03 7.03 0 0 0 2.33.48c1.026.045 1.351.059 3.955.059s2.937 0 3.956-.06a7.039 7.039 0 0 0 2.33-.446 4.917 4.917 0 0 0 2.808-2.802 7 7 0 0 0 .446-2.328c.046-1.024.06-1.349.06-3.95-.002-2.599-.002-2.928-.062-3.947Zm-9.546 8.831a4.924 4.924 0 0 1-4.928-4.92 4.924 4.924 0 0 1 4.928-4.921 4.925 4.925 0 0 1 4.93 4.92 4.925 4.925 0 0 1-4.93 4.921Zm5.126-8.876a1.147 1.147 0 1 1 0-2.295 1.147 1.147 0 1 1 0 2.295Z"/><path fill="#111" d="M11.994 14.982a3.003 3.003 0 1 0 0-6.006 3.003 3.003 0 0 0 0 6.006Z"/></svg>
